svgs/sharp-solid/anchor-circle-check.svg

<svg xmlns="http://www.w3.org/2000/svg" viewBox="0 0 640 512"><!--! Font Awesome Pro 6.6.0 by @fontawesome - https://fontawesome.com License - https://fontawesome.com/license (Commercial License) Copyright 2024 Fonticons, Inc. --><path d="M320 96a32 32 0 1 1 -64 0 32 32 0 1 1 64 0zm21.1 80C367 158.8 384 129.4 384 96c0-53-43-96-96-96s-96 43-96 96c0 33.4 17 62.8 42.9 80L224 176l-32 0 0 64 32 0 32 0 0 208-128 0 0-96 64 0L96 256 0 352l64 0 0 128 0 32 32 0 192 0 106.8 0c-23.3-16.4-42.5-38.4-55.6-64L320 448l0-79.5 0-.5 0-.5L320 240l32 0 23.2 0c2.8-2.7 5.8-5.3 8.8-7.8l0-56.2-32 0-10.9 0zM640 368a144 144 0 1 0 -288 0 144 144 0 1 0 288 0zm-65.4-32l-11.3 11.3-72 72L480 430.6l-11.3-11.3-40-40L417.4 368 440 345.4l11.3 11.3L480 385.4l60.7-60.7L552 313.4 574.6 336z"/></svg>

<svg xmlns="http://www.w3.org/2000/svg" viewBox="0 0 640 512"><!--! Font Awesome Pro 6.5.2 by @fontawesome - https://fontawesome.com License - https://fontawesome.com/license (Commercial License) Copyright 2024 Fonticons, Inc. --><path d="M320 96a32 32 0 1 1 -64 0 32 32 0 1 1 64 0zm21.1 80C367 158.8 384 129.4 384 96c0-53-43-96-96-96s-96 43-96 96c0 33.4 17 62.8 42.9 80H224 192v64h32 32V448H128V352h64L96 256 0 352H64V480v32H96 288 394.8c-23.3-16.4-42.5-38.4-55.6-64H320V368.5l0-.5 0-.5V240h32 23.2c2.8-2.7 5.8-5.3 8.8-7.8V176H352 341.1zM640 368a144 144 0 1 0 -288 0 144 144 0 1 0 288 0zm-65.4-32l-11.3 11.3-72 72L480 430.6l-11.3-11.3-40-40L417.4 368 440 345.4l11.3 11.3L480 385.4l60.7-60.7L552 313.4 574.6 336z"/></svg>
